SVG_Azure_All/Health Decision Support.svg

<?xml version="1.0" encoding="UTF-8" standalone="no"?>
<!-- Generated by Microsoft Visio, SVG Export Health Decision Support.svg Page-1 -->

<svg
   xmlns:dc="http://purl.org/dc/elements/1.1/"
   xmlns:cc="http://creativecommons.org/ns#"
   xmlns:rdf="http://www.w3.org/1999/02/22-rdf-syntax-ns#"
   xmlns:svg="http://www.w3.org/2000/svg"
   xmlns="http://www.w3.org/2000/svg"
   xmlns:sodipodi="http://sodipodi.sourceforge.net/DTD/sodipodi-0.dtd"
   xmlns:inkscape="http://www.inkscape.org/namespaces/inkscape"
   width="0.7873975in"
   height="0.7873975in"
   viewBox="0 0 56.692687 56.692899"
   xml:space="preserve"
   class="st3"
   version="1.1"
   id="svg24"
   sodipodi:docname="Health Decision Support.svg"
   style="font-size:12px;overflow:visible;color-interpolation-filters:sRGB;fill:none;fill-rule:evenodd;stroke-linecap:square;stroke-miterlimit:3"
   inkscape:version="0.92.5 (2060ec1f9f, 2020-04-08)"><metadata
   id="metadata30"><rdf:RDF><cc:Work
       rdf:about=""><dc:format>image/svg+xml</dc:format><dc:type
         rdf:resource="http://purl.org/dc/dcmitype/StillImage" /></cc:Work></rdf:RDF></metadata><defs
   id="defs28" /><sodipodi:namedview
   pagecolor="#ffffff"
   bordercolor="#666666"
   borderopacity="1"
   objecttolerance="10"
   gridtolerance="10"
   guidetolerance="10"
   inkscape:pageopacity="0"
   inkscape:pageshadow="2"
   inkscape:window-width="640"
   inkscape:window-height="480"
   id="namedview26"
   showgrid="false"
   inkscape:zoom="1.6696778"
   inkscape:cx="37.79508"
   inkscape:cy="25.317743"
   inkscape:window-x="0"
   inkscape:window-y="0"
   inkscape:window-maximized="0"
   inkscape:current-layer="svg24" />
	<style
   type="text/css"
   id="style2">
	<![CDATA[
		.st1 {fill:#0071c6;stroke:none;stroke-linecap:butt;stroke-width:15.3}
		.st2 {fill:#ffffff;stroke:none;stroke-linecap:butt;stroke-width:15.3}
		.st3 {fill:none;fill-rule:evenodd;font-size:12px;overflow:visible;stroke-linecap:square;stroke-miterlimit:3}
	]]>
	</style>

	<g
   id="g22"
   transform="translate(-15.300164,-15.300001)">
		<title
   id="title4">Page-1</title>
		<g
   id="group4297-1"
   transform="translate(15.3,-34.0157)">
			<title
   id="title6">Health Decision Support</title>
			<g
   id="group4298-2">
				<title
   id="title8">Sheet.4298</title>
				<g
   id="shape4299-3">
					<title
   id="title10">Sheet.4299</title>
					<rect
   x="0"
   y="49.315701"
   width="56.692902"
   height="56.692902"
   class="st1"
   id="rect12"
   style="fill:#0071c6;stroke:none;stroke-width:15.30000019;stroke-linecap:butt" />
				</g>
				<g
   id="shape4300-5"
   transform="translate(11.1465,-8.34094)">
					<title
   id="title15">Sheet.4300</title>
					<path
   d="M 15.45,104.22 A 5.62677,5.62677 0 0 1 13.39,104.9 5.27102,5.27102 0 0 1 11.36,104.76 7.06819,7.06819 0 0 1 9.43,103.9 8.32961,8.32961 0 0 1 7.7,102.43 C 7.29,101.97 6.87,101.47 6.44,100.92 A 13.174,13.174 0 0 1 5.27,99.16 7.92142,7.92142 0 0 1 4.5,97.24 4.96913,4.96913 0 0 1 4.41,95.25 c 0.02,-0.1 0.04,-0.19 0.07,-0.27 A 6.67559,6.67559 0 0 1 4.58,94.7 6.72945,6.72945 0 0 1 3.5,93.95 12.7431,12.7431 0 0 1 2.52,93.03 10.9162,10.9162 0 0 1 1.23,91.23 9.76394,9.76394 0 0 1 0.28,89.04 5.95559,5.95559 0 0 1 0.05,86.75 3.77008,3.77008 0 0 1 0.89,84.72 6.5948,6.5948 0 0 1 0.05,82.21 8.46425,8.46425 0 0 1 0.15,79.61 8.06315,8.06315 0 0 1 1.04,77.17 9.82205,9.82205 0 0 1 2.56,75.12 3.8948,3.8948 0 0 1 4.21,74.1 3.6326,3.6326 0 0 1 6.13,74.08 4.21654,4.21654 0 0 1 6.25,72.06 4.16693,4.16693 0 0 1 7.3,70.38 c 0.59,-0.59 1.27,-1.09 2.02,-1.49 a 7.74567,7.74567 0 0 1 2.37,-0.82 6.98882,6.98882 0 0 1 2.46,0.02 5.89181,5.89181 0 0 1 2.35,1.02 3.16063,3.16063 0 0 1 1.96,-0.76 5.76142,5.76142 0 0 1 2.15,0.35 c 0.72,0.26 1.4,0.63 2.04,1.09 a 10.6299,10.6299 0 0 1 1.65,1.46 c 0.3,0.34 0.58,0.7 0.84,1.06 0.25,0.37 0.47,0.77 0.64,1.19 0.65,-0.24 1.31,-0.28 1.98,-0.1 0.67,0.17 1.32,0.47 1.95,0.88 0.63,0.42 1.23,0.89 1.79,1.41 0.56,0.52 1.05,1.02 1.45,1.49 0.53,0.57 0.96,1.2 1.31,1.86 0.35,0.66 0.59,1.35 0.72,2.07 a 6.4063,6.4063 0 0 1 -0.72,4.29 c 0.53,0.83 0.91,1.72 1.15,2.68 a 9.34016,9.34016 0 0 1 0.27,2.87 9.0652,9.0652 0 0 1 -0.61,2.78 6.86693,6.86693 0 0 1 -1.56,2.36 5.16472,5.16472 0 0 1 -1.31,0.96 c -0.48,0.24 -0.99,0.43 -1.53,0.57 a 5.8252,5.8252 0 0 1 -1.64,0.16 15.1228,15.1228 0 0 1 -1.64,-0.16 c 0.08,0.57 0.1,1.14 0.08,1.72 -0.02,0.59 -0.11,1.16 -0.27,1.71 a 9.02835,9.02835 0 0 1 -0.59,1.58 c -0.24,0.5 -0.57,0.95 -0.99,1.35 a 6.64866,6.64866 0 0 1 -2.31,1.52 7.40835,7.40835 0 0 1 -2.66,0.51 8.35087,8.35087 0 0 1 -5.2,-1.79 z M 24.88,96.51 12.61,82.92 10.9,84.63 c 0.15,0.34 0.24,0.69 0.28,1.04 a 4.25197,4.25197 0 0 1 -0.03,1.06 2.91118,2.91118 0 0 1 -0.33,0.99 4.2222,4.2222 0 0 1 -0.61,0.85 A 3.12661,3.12661 0 0 1 7.87,89.49 3.41575,3.41575 0 0 1 6.6,89.18 3.03024,3.03024 0 0 1 5.53,88.38 3.52346,3.52346 0 0 1 4.82,87.21 3.71055,3.71055 0 0 1 4.85,84.56 c 0.17,-0.43 0.41,-0.8 0.73,-1.11 a 3.08268,3.08268 0 0 1 1.8,-0.9 c 0.33,-0.05 0.66,-0.04 0.99,0.01 0.34,0.06 0.66,0.18 0.99,0.37 L 11.07,81.21 7.89,77.69 A 5.12646,5.12646 -180 0 0 7.09,76.98 3.67654,3.67654 -180 0 0 6.08,76.47 2.46189,2.46189 -180 0 0 5.03,76.35 C 4.69,76.38 4.38,76.54 4.1,76.82 a 6.73937,6.73937 -180 0 0 -1.16,1.6 6.29433,6.29433 -180 0 0 -0.67,1.93 5.52756,5.52756 -180 0 0 0.03,2 c 0.13,0.67 0.44,1.28 0.94,1.83 0.21,0.23 0.31,0.51 0.3,0.83 a 1.11543,1.11543 0 0 1 -0.32,0.81 1.20898,1.20898 0 0 1 -0.3,0.22 C 2.82,86.09 2.71,86.17 2.6,86.26 A 0.935433,0.935433 -180 0 0 2.364724,86.622835 C 2.33,86.75 2.29,86.9 2.27,87.08 a 3.25984,3.25984 -180 0 0 0.07,1.14 c 0.09,0.4 0.23,0.79 0.41,1.19 a 8.52803,8.52803 -180 0 0 1.34,2.03 c 0.36,0.4 0.72,0.72 1.07,0.98 0.36,0.25 0.79,0.45 1.3,0.6 0.11,0.04 0.21,0.08 0.3,0.13 a 0.977953,0.977953 0 0 1 0.265039,0.21685 L 8.28,92.12 c 0.46,-0.46 0.99,-0.8 1.59,-1.01 a 5.10378,5.10378 0 0 1 1.87,-0.3 c 0.64,0.02 1.26,0.16 1.85,0.44 0.59,0.27 1.11,0.65 1.58,1.15 l 0.58,0.64 a 2.87717,2.87717 0 0 1 0.97,-0.27 3.65669,3.65669 0 0 1 1.02,0.06 c 0.34,0.06 0.65,0.19 0.94,0.37 0.29,0.18 0.57,0.41 0.82,0.67 0.31,0.35 0.55,0.74 0.71,1.18 a 3.71339,3.71339 0 0 1 -0.03,2.64 2.97638,2.97638 0 0 1 -0.74,1.11 3.12661,3.12661 0 0 1 -2.33,0.92 3.41717,3.41717 0 0 1 -1.27,-0.31 3.02882,3.02882 0 0 1 -1.07,-0.8 3.61417,3.61417 0 0 1 -0.91,-1.91 3.81543,3.81543 0 0 1 -0.01,-1.05 3.21732,3.21732 0 0 1 0.32,-1.03 l -0.52,-0.57 a 2.77795,2.77795 -180 0 0 -1.93,-0.92 c -0.34,-0.01 -0.69,0.04 -1.05,0.17 -0.36,0.12 -0.66,0.32 -0.92,0.59 l -2.76,2.76 a 1.5789,1.5789 0 0 1 -0.32,0.24 c 0.11,0.35 0.26,0.7 0.45,1.05 0.19,0.35 0.41,0.69 0.66,1.04 a 23.563,23.563 -180 0 0 1.5,1.87 c 0.48,0.52 1,0.95 1.57,1.3 0.57,0.34 1.22,0.49 1.93,0.45 0.15,-0.02 0.31,-0.03 0.49,-0.06 a 3.08268,3.08268 -180 0 0 1.04,-0.36 c 0.16,-0.08 0.3,-0.18 0.42,-0.29 a 1.00488,1.00488 0 0 1 0.78,-0.3 c 0.31,0.01 0.57,0.14 0.78,0.37 0.2,0.22 0.44,0.42 0.71,0.6 0.28,0.19 0.57,0.34 0.87,0.47 0.31,0.14 0.62,0.26 0.94,0.36 0.31,0.11 0.61,0.18 0.9,0.22 0.81,0.13 1.6,0.09 2.35,-0.12 a 4.57795,4.57795 -180 0 0 2.02,-1.22 c 0.3,-0.29 0.54,-0.65 0.72,-1.07 0.19,-0.42 0.32,-0.87 0.4,-1.36 a 6.47717,6.47717 -180 0 0 0.07,-1.42 7.23118,7.23118 -180 0 0 -0.28,-1.64 1.0148,1.0148 -180 0 0 -0.11,-0.27 z m 6.5,-17.76 a 39.2343,39.2343 -180 0 0 -0.77,-0.82 11.8573,11.8573 -180 0 0 -1.87,-1.58 5.84504,5.84504 -180 0 0 -0.99,-0.54 2.14724,2.14724 -180 0 0 -0.94,-0.17 c -0.3,0.03 -0.58,0.17 -0.86,0.43 a 1.00346,1.00346 0 0 1 -0.78,0.3 1.06583,1.06583 0 0 1 -0.78,-0.36 1.24583,1.24583 0 0 1 -0.3,-0.62 4.76504,4.76504 -180 0 0 -0.51,-1.37 7.92709,7.92709 -180 0 0 -0.87,-1.2 7.97811,7.97811 -180 0 0 -1.85,-1.5 4.93795,4.93795 -180 0 0 -1.1,-0.49 3.44693,3.44693 -180 0 0 -1.1,-0.15 2.4378,2.4378 -180 0 0 -0.41,0.08 1.07858,1.07858 -180 0 0 -0.38,0.23 1.26567,1.26567 -180 0 0 -0.23,0.3 1.88362,1.88362 0 0 1 -0.22,0.33 0.982205,0.982205 0 0 1 -0.599528,0.29622 A 1.03181,1.03181 0 0 1 15.86,71.55 c -0.49,-0.54 -1.04,-0.9 -1.65,-1.08 a 4.65591,4.65591 -180 0 0 -1.92,-0.14 c -0.65,0.08 -1.28,0.29 -1.88,0.61 -0.6,0.33 -1.12,0.71 -1.57,1.15 a 1.67669,1.67669 -180 0 0 -0.5,0.95 2.70709,2.70709 -180 0 0 0.06,1.08 c 0.09,0.36 0.24,0.73 0.44,1.08 0.2,0.36 0.41,0.67 0.63,0.92 l 13.96,15.45 1.18,-1.18 c 0.27,-0.27 0.48,-0.59 0.61,-0.94 0.13,-0.36 0.2,-0.71 0.21,-1.07 a 3.42142,3.42142 -180 0 0 -0.18,-1.11 2.55827,2.55827 -180 0 0 -0.59,-0.99 l -2.83,-3.13 a 2.87858,2.87858 0 0 1 -0.97,0.27 3.69921,3.69921 0 0 1 -1.02,-0.05 2.72126,2.72126 0 0 1 -0.94,-0.38 4.37244,4.37244 0 0 1 -0.82,-0.67 3.52488,3.52488 0 0 1 -0.71,-1.17 3.71764,3.71764 0 0 1 0.03,-2.64 2.97638,2.97638 0 0 1 0.73,-1.12 3.12661,3.12661 0 0 1 2.34,-0.92 c 0.42,0.02 0.85,0.12 1.27,0.31 0.42,0.19 0.77,0.46 1.07,0.8 a 3.61417,3.61417 0 0 1 0.91,1.91 c 0.05,0.36 0.05,0.71 0.01,1.06 a 3.21732,3.21732 0 0 1 -0.32,1.02 l 2.89,3.2 c 0.46,0.52 0.81,1.09 1.03,1.74 a 5.63528,5.63528 0 0 1 -0.1,3.92 c -0.25,0.62 -0.61,1.18 -1.08,1.66 l -1.18,1.19 1.49,1.65 a 0.914173,0.914173 -180 0 0 0.255118,0.126142 C 26.86,95.11 26.95,95.14 26.99,95.15 c 0.38,0.15 0.8,0.24 1.24,0.29 0.45,0.04 0.91,0.03 1.37,-0.02 0.46,-0.06 0.89,-0.17 1.29,-0.34 0.4,-0.16 0.77,-0.39 1.08,-0.7 0.6,-0.59 1.01,-1.27 1.25,-2.05 a 6.61323,6.61323 -180 0 0 0.25,-2.48 7.16031,7.16031 -180 0 0 -0.17,-0.93 14.0485,14.0485 -180 0 0 -0.27,-1.01 4.77496,4.77496 -180 0 0 -0.42,-0.96 5.53748,5.53748 -180 0 0 -0.54,-0.78 1.17921,1.17921 0 0 1 -0.31,-0.83 1.12252,1.12252 0 0 1 0.33,-0.81 c 0.11,-0.1 0.21,-0.24 0.3,-0.39 0.09,-0.17 0.16,-0.34 0.22,-0.54 a 9.77953,9.77953 -180 0 0 0.15,-0.55 c 0.05,-0.18 0.08,-0.36 0.1,-0.53 0.08,-0.72 -0.03,-1.4 -0.33,-2.02 a 7.69606,7.69606 -180 0 0 -1.15,-1.75 z m -22.7,6.47 a 1.06441,1.06441 -180 0 0 -0.77,-0.36 1.00346,1.00346 -180 0 0 -0.78,0.3 1.11543,1.11543 -180 0 0 -0.33,0.8 1.17496,1.17496 -180 0 0 0.31,0.84 c 0.2,0.23 0.46,0.35 0.77,0.36 a 1.00488,1.00488 -180 0 0 0.78,-0.3 1.10551,1.10551 -180 0 0 0.33,-0.81 1.17921,1.17921 -180 0 0 -0.31,-0.83 z m 12.55,-6.06 a 1.06583,1.06583 -180 0 0 -0.77,-0.36 1.00346,1.00346 -180 0 0 -0.79,0.3 1.11543,1.11543 -180 0 0 -0.32,0.81 1.18346,1.18346 -180 0 0 0.3,0.83 c 0.21,0.23 0.47,0.35 0.78,0.37 A 1.00346,1.00346 -180 0 0 21.21,80.8 1.11118,1.11118 -180 0 0 21.54,80 1.17921,1.17921 -180 0 0 21.23,79.16 Z m -3.31,16.29 a 1.06583,1.06583 -180 0 0 -0.77,-0.36 1.00346,1.00346 -180 0 0 -0.79,0.3 1.11543,1.11543 -180 0 0 -0.32,0.81 c -0.01,0.32 0.1,0.6 0.3,0.83 0.21,0.23 0.47,0.35 0.78,0.37 a 1.00346,1.00346 -180 0 0 0.78,-0.31 1.10551,1.10551 -180 0 0 0.33,-0.8 1.17921,1.17921 -180 0 0 -0.31,-0.84 z"
   class="st2"
   id="path17"
   inkscape:connector-curvature="0"
   style="fill:#ffffff;stroke:none;stroke-width:15.30000019;stroke-linecap:butt" />
				</g>
			</g>
		</g>
	</g>
</svg>

<?xml version="1.0" encoding="UTF-8" standalone="no"?>
<!DOCTYPE svg PUBLIC "-//W3C//DTD SVG 1.1//EN" "http://www.w3.org/Graphics/SVG/1.1/DTD/svg11.dtd">
<!-- Generated by Microsoft Visio, SVG Export Health Decision Support.svg Page-1 -->
<svg xmlns="http://www.w3.org/2000/svg" xmlns:xlink="http://www.w3.org/1999/xlink" xmlns:ev="http://www.w3.org/2001/xml-events"
		width="1.2124in" height="1.47234in" viewBox="0 0 87.2929 106.009" xml:space="preserve" color-interpolation-filters="sRGB"
		class="st3">
	<style type="text/css">
	<![CDATA[
		.st1 {fill:#0071c6;stroke:none;stroke-linecap:butt;stroke-width:15.3}
		.st2 {fill:#ffffff;stroke:none;stroke-linecap:butt;stroke-width:15.3}
		.st3 {fill:none;fill-rule:evenodd;font-size:12px;overflow:visible;stroke-linecap:square;stroke-miterlimit:3}
	]]>
	</style>

	<g>
		<title>Page-1</title>
		<g id="group4204-1" transform="translate(15.3,-34.0157)">
			<title>Health Decision Support</title>
			<g id="group4205-2">
				<title>Sheet.4205</title>
				<g id="shape4206-3">
					<title>Sheet.4206</title>
					<rect x="0" y="49.3157" width="56.6929" height="56.6929" class="st1"/>
				</g>
				<g id="shape4207-5" transform="translate(11.1465,-8.34094)">
					<title>Sheet.4207</title>
					<path d="M15.45 104.22 A5.62677 5.62677 0 0 1 13.39 104.9 A5.27102 5.27102 0 0 1 11.36 104.76 A7.06819 7.06819
								 0 0 1 9.43 103.9 A8.32961 8.32961 0 0 1 7.7 102.43 C7.29 101.97 6.87 101.47 6.44 100.92 A13.174
								 13.174 0 0 1 5.27 99.16 A7.92142 7.92142 0 0 1 4.5 97.24 A4.96913 4.96913 0 0 1 4.41 95.25 C4.43
								 95.15 4.45 95.06 4.48 94.98 A6.67559 6.67559 0 0 1 4.58 94.7 A6.72945 6.72945 0 0 1 3.5 93.95 A12.7431
								 12.7431 0 0 1 2.52 93.03 A10.9162 10.9162 0 0 1 1.23 91.23 A9.76394 9.76394 0 0 1 0.28 89.04 A5.95559
								 5.95559 0 0 1 0.05 86.75 A3.77008 3.77008 0 0 1 0.89 84.72 A6.5948 6.5948 0 0 1 0.05 82.21 A8.46425
								 8.46425 0 0 1 0.15 79.61 A8.06315 8.06315 0 0 1 1.04 77.17 A9.82205 9.82205 0 0 1 2.56 75.12 A3.8948
								 3.8948 0 0 1 4.21 74.1 A3.6326 3.6326 0 0 1 6.13 74.08 A4.21654 4.21654 0 0 1 6.25 72.06 A4.16693
								 4.16693 0 0 1 7.3 70.38 C7.89 69.79 8.57 69.29 9.32 68.89 A7.74567 7.74567 0 0 1 11.69 68.07 A6.98882
								 6.98882 0 0 1 14.15 68.09 A5.89181 5.89181 0 0 1 16.5 69.11 A3.16063 3.16063 0 0 1 18.46 68.35 A5.76142
								 5.76142 0 0 1 20.61 68.7 C21.33 68.96 22.01 69.33 22.65 69.79 A10.6299 10.6299 0 0 1 24.3 71.25
								 C24.6 71.59 24.88 71.95 25.14 72.31 C25.39 72.68 25.61 73.08 25.78 73.5 C26.43 73.26 27.09 73.22
								 27.76 73.4 C28.43 73.57 29.08 73.87 29.71 74.28 C30.34 74.7 30.94 75.17 31.5 75.69 C32.06 76.21
								 32.55 76.71 32.95 77.18 C33.48 77.75 33.91 78.38 34.26 79.04 C34.61 79.7 34.85 80.39 34.98 81.11
								 A6.4063 6.4063 0 0 1 34.26 85.4 C34.79 86.23 35.17 87.12 35.41 88.08 A9.34016 9.34016 0 0 1 35.68
								 90.95 A9.0652 9.0652 0 0 1 35.07 93.73 A6.86693 6.86693 0 0 1 33.51 96.09 A5.16472 5.16472 0 0 1
								 32.2 97.05 C31.72 97.29 31.21 97.48 30.67 97.62 A5.8252 5.8252 0 0 1 29.03 97.78 A15.1228 15.1228
								 0 0 1 27.39 97.62 C27.47 98.19 27.49 98.76 27.47 99.34 C27.45 99.93 27.36 100.5 27.2 101.05 A9.02835
								 9.02835 0 0 1 26.61 102.63 C26.37 103.13 26.04 103.58 25.62 103.98 A6.64866 6.64866 0 0 1 23.31
								 105.5 A7.40835 7.40835 0 0 1 20.65 106.01 A8.35087 8.35087 0 0 1 15.45 104.22 ZM24.88 96.51 L12.61
								 82.92 L10.9 84.63 C11.05 84.97 11.14 85.32 11.18 85.67 A4.25197 4.25197 0 0 1 11.15 86.73 A2.91118
								 2.91118 0 0 1 10.82 87.72 A4.2222 4.2222 0 0 1 10.21 88.57 A3.12661 3.12661 0 0 1 7.87 89.49 A3.41575
								 3.41575 0 0 1 6.6 89.18 A3.03024 3.03024 0 0 1 5.53 88.38 A3.52346 3.52346 0 0 1 4.82 87.21 A3.71055
								 3.71055 0 0 1 4.85 84.56 C5.02 84.13 5.26 83.76 5.58 83.45 A3.08268 3.08268 0 0 1 7.38 82.55 C7.71
								 82.5 8.04 82.51 8.37 82.56 C8.71 82.62 9.03 82.74 9.36 82.93 L11.07 81.21 L7.89 77.69 A5.12646 5.12646
								 -180 0 0 7.09 76.98 A3.67654 3.67654 -180 0 0 6.08 76.47 A2.46189 2.46189 -180 0 0 5.03 76.35 C4.69
								 76.38 4.38 76.54 4.1 76.82 A6.73937 6.73937 -180 0 0 2.94 78.42 A6.29433 6.29433 -180 0 0 2.27 80.35
								 A5.52756 5.52756 -180 0 0 2.3 82.35 C2.43 83.02 2.74 83.63 3.24 84.18 C3.45 84.41 3.55 84.69 3.54
								 85.01 A1.11543 1.11543 0 0 1 3.22 85.82 A1.20898 1.20898 0 0 1 2.92 86.04 C2.82 86.09 2.71 86.17
								 2.6 86.26 a0.935433 0.935433 -180 0 0 -0.235276 0.362835 C2.33 86.75 2.29 86.9 2.27 87.08 A3.25984
								 3.25984 -180 0 0 2.34 88.22 C2.43 88.62 2.57 89.01 2.75 89.41 A8.52803 8.52803 -180 0 0 4.09 91.44
								 C4.45 91.84 4.81 92.16 5.16 92.42 C5.52 92.67 5.95 92.87 6.46 93.02 C6.57 93.06 6.67 93.1 6.76 93.15
								 a0.977953 0.977953 0 0 1 0.265039 0.21685 L8.28 92.12 C8.74 91.66 9.27 91.32 9.87 91.11 A5.10378
								 5.10378 0 0 1 11.74 90.81 C12.38 90.83 13 90.97 13.59 91.25 C14.18 91.52 14.7 91.9 15.17 92.4 L15.75
								 93.04 A2.87717 2.87717 0 0 1 16.72 92.77 A3.65669 3.65669 0 0 1 17.74 92.83 C18.08 92.89 18.39 93.02
								 18.68 93.2 C18.97 93.38 19.25 93.61 19.5 93.87 C19.81 94.22 20.05 94.61 20.21 95.05 A3.71339 3.71339
								 0 0 1 20.18 97.69 A2.97638 2.97638 0 0 1 19.44 98.8 A3.12661 3.12661 0 0 1 17.11 99.72 A3.41717
								 3.41717 0 0 1 15.84 99.41 A3.02882 3.02882 0 0 1 14.77 98.61 A3.61417 3.61417 0 0 1 13.86 96.7 A3.81543
								 3.81543 0 0 1 13.85 95.65 A3.21732 3.21732 0 0 1 14.17 94.62 L13.65 94.05 A2.77795 2.77795 -180
								 0 0 11.72 93.13 C11.38 93.12 11.03 93.17 10.67 93.3 C10.31 93.42 10.01 93.62 9.75 93.89 L6.99 96.65
								 A1.5789 1.5789 0 0 1 6.67 96.89 C6.78 97.24 6.93 97.59 7.12 97.94 C7.31 98.29 7.53 98.63 7.78 98.98
								 A23.563 23.563 -180 0 0 9.28 100.85 C9.76 101.37 10.28 101.8 10.85 102.15 C11.42 102.49 12.07 102.64
								 12.78 102.6 C12.93 102.58 13.09 102.57 13.27 102.54 A3.08268 3.08268 -180 0 0 14.31 102.18 C14.47
								 102.1 14.61 102 14.73 101.89 A1.00488 1.00488 0 0 1 15.51 101.59 C15.82 101.6 16.08 101.73 16.29
								 101.96 C16.49 102.18 16.73 102.38 17 102.56 C17.28 102.75 17.57 102.9 17.87 103.03 C18.18 103.17
								 18.49 103.29 18.81 103.39 C19.12 103.5 19.42 103.57 19.71 103.61 C20.52 103.74 21.31 103.7 22.06
								 103.49 A4.57795 4.57795 -180 0 0 24.08 102.27 C24.38 101.98 24.62 101.62 24.8 101.2 C24.99 100.78
								 25.12 100.33 25.2 99.84 A6.47717 6.47717 -180 0 0 25.27 98.42 A7.23118 7.23118 -180 0 0 24.99 96.78
								 A1.0148 1.0148 -180 0 0 24.88 96.51 ZM31.38 78.75 A39.2343 39.2343 -180 0 0 30.61 77.93 A11.8573
								 11.8573 -180 0 0 28.74 76.35 A5.84504 5.84504 -180 0 0 27.75 75.81 A2.14724 2.14724 -180 0 0 26.81
								 75.64 C26.51 75.67 26.23 75.81 25.95 76.07 A1.00346 1.00346 0 0 1 25.17 76.37 A1.06583 1.06583 0
								 0 1 24.39 76.01 A1.24583 1.24583 0 0 1 24.09 75.39 A4.76504 4.76504 -180 0 0 23.58 74.02 A7.92709
								 7.92709 -180 0 0 22.71 72.82 A7.97811 7.97811 -180 0 0 20.86 71.32 A4.93795 4.93795 -180 0 0 19.76
								 70.83 A3.44693 3.44693 -180 0 0 18.66 70.68 A2.4378 2.4378 -180 0 0 18.25 70.76 A1.07858 1.07858
								 -180 0 0 17.87 70.99 A1.26567 1.26567 -180 0 0 17.64 71.29 A1.88362 1.88362 0 0 1 17.42 71.62 a0.982205
								 0.982205 0 0 1 -0.599528 0.29622 A1.03181 1.03181 0 0 1 15.86 71.55 C15.37 71.01 14.82 70.65 14.21
								 70.47 A4.65591 4.65591 -180 0 0 12.29 70.33 C11.64 70.41 11.01 70.62 10.41 70.94 C9.81 71.27 9.29
								 71.65 8.84 72.09 A1.67669 1.67669 -180 0 0 8.34 73.04 A2.70709 2.70709 -180 0 0 8.4 74.12 C8.49
								 74.48 8.64 74.85 8.84 75.2 C9.04 75.56 9.25 75.87 9.47 76.12 L23.43 91.57 L24.61 90.39 C24.88 90.12
								 25.09 89.8 25.22 89.45 C25.35 89.09 25.42 88.74 25.43 88.38 A3.42142 3.42142 -180 0 0 25.25 87.27
								 A2.55827 2.55827 -180 0 0 24.66 86.28 L21.83 83.15 A2.87858 2.87858 0 0 1 20.86 83.42 A3.69921 3.69921
								 0 0 1 19.84 83.37 A2.72126 2.72126 0 0 1 18.9 82.99 A4.37244 4.37244 0 0 1 18.08 82.32 A3.52488
								 3.52488 0 0 1 17.37 81.15 A3.71764 3.71764 0 0 1 17.4 78.51 A2.97638 2.97638 0 0 1 18.13 77.39 A3.12661
								 3.12661 0 0 1 20.47 76.47 C20.89 76.49 21.32 76.59 21.74 76.78 C22.16 76.97 22.51 77.24 22.81 77.58
								 A3.61417 3.61417 0 0 1 23.72 79.49 C23.77 79.85 23.77 80.2 23.73 80.55 A3.21732 3.21732 0 0 1 23.41
								 81.57 L26.3 84.77 C26.76 85.29 27.11 85.86 27.33 86.51 A5.63528 5.63528 0 0 1 27.23 90.43 C26.98
								 91.05 26.62 91.61 26.15 92.09 L24.97 93.28 L26.46 94.93 a0.914173 0.914173 -180 0 0 0.255118 0.126142
								 C26.86 95.11 26.95 95.14 26.99 95.15 C27.37 95.3 27.79 95.39 28.23 95.44 C28.68 95.48 29.14 95.47
								 29.6 95.42 C30.06 95.36 30.49 95.25 30.89 95.08 C31.29 94.92 31.66 94.69 31.97 94.38 C32.57 93.79
								 32.98 93.11 33.22 92.33 A6.61323 6.61323 -180 0 0 33.47 89.85 A7.16031 7.16031 -180 0 0 33.3 88.92
								 A14.0485 14.0485 -180 0 0 33.03 87.91 A4.77496 4.77496 -180 0 0 32.61 86.95 A5.53748 5.53748 -180
								 0 0 32.07 86.17 A1.17921 1.17921 0 0 1 31.76 85.34 A1.12252 1.12252 0 0 1 32.09 84.53 C32.2 84.43
								 32.3 84.29 32.39 84.14 C32.48 83.97 32.55 83.8 32.61 83.6 A9.77953 9.77953 -180 0 0 32.76 83.05
								 C32.81 82.87 32.84 82.69 32.86 82.52 C32.94 81.8 32.83 81.12 32.53 80.5 A7.69606 7.69606 -180 0
								 0 31.38 78.75 L31.38 78.75 ZM8.68 85.22 A1.06441 1.06441 -180 0 0 7.91 84.86 A1.00346 1.00346 -180
								 0 0 7.13 85.16 A1.11543 1.11543 -180 0 0 6.8 85.96 A1.17496 1.17496 -180 0 0 7.11 86.8 C7.31 87.03
								 7.57 87.15 7.88 87.16 A1.00488 1.00488 -180 0 0 8.66 86.86 A1.10551 1.10551 -180 0 0 8.99 86.05
								 A1.17921 1.17921 -180 0 0 8.68 85.22 ZM21.23 79.16 A1.06583 1.06583 -180 0 0 20.46 78.8 A1.00346
								 1.00346 -180 0 0 19.67 79.1 A1.11543 1.11543 -180 0 0 19.35 79.91 A1.18346 1.18346 -180 0 0 19.65
								 80.74 C19.86 80.97 20.12 81.09 20.43 81.11 A1.00346 1.00346 -180 0 0 21.21 80.8 A1.11118 1.11118
								 -180 0 0 21.54 80 A1.17921 1.17921 -180 0 0 21.23 79.16 ZM17.92 95.45 A1.06583 1.06583 -180 0 0
								 17.15 95.09 A1.00346 1.00346 -180 0 0 16.36 95.39 A1.11543 1.11543 -180 0 0 16.04 96.2 C16.03 96.52
								 16.14 96.8 16.34 97.03 C16.55 97.26 16.81 97.38 17.12 97.4 A1.00346 1.00346 -180 0 0 17.9 97.09
								 A1.10551 1.10551 -180 0 0 18.23 96.29 A1.17921 1.17921 -180 0 0 17.92 95.45 Z" class="st2"/>
				</g>
			</g>
		</g>
	</g>
</svg>
